lib/preview/nrk-logo-preview-nrk-1-on-light.svg

<svg width="44" height="24" viewBox="0 0 44 24" fill="none" xmlns="http://www.w3.org/2000/svg">
<path d="M-3.05176e-05 17.9971V5.99822H3.93716V17.9971H-3.05176e-05ZM9.29378 7.90791L11.558 17.9971H7.24914L4.54546 5.99822H6.96215C7.51632 5.99103 8.05403 6.18638 8.47447 6.54752C8.89559 6.89351 9.18492 7.37383 9.29378 7.90791ZM12.1495 17.9971V5.99822H16.0867V17.9971H12.1495ZM19.0604 10.5612C18.6362 10.5654 18.2187 10.4544 17.8525 10.2401C17.4912 10.0313 17.1911 9.73109 16.9822 9.36973C16.7677 9.00346 16.6567 8.58589 16.6609 8.16145C16.6561 7.73959 16.7672 7.32451 16.9822 6.96156C17.1933 6.60412 17.4931 6.30722 17.8525 6.09965C18.2188 5.88563 18.6362 5.77465 19.0604 5.77852C19.4822 5.77397 19.8971 5.88506 20.2602 6.09965C20.616 6.30904 20.9126 6.60569 21.122 6.96156C21.3368 7.32461 21.4479 7.73963 21.4433 8.16145C21.4472 8.58586 21.3362 9.00336 21.122 9.36973C20.9148 9.72951 20.6179 10.0294 20.2602 10.2401C19.8971 10.4551 19.4819 10.5662 19.0599 10.5612H19.0604ZM22.0516 17.9971V5.99822H25.9891V17.9971H22.0516ZM30.9737 12.5554C30.9848 12.567 31.0692 12.705 31.2271 12.9694C31.385 13.2338 31.5906 13.5718 31.8439 13.9834C32.0974 14.3948 32.3649 14.8314 32.6463 15.2931C32.9277 15.7549 33.1926 16.1915 33.4408 16.6029C33.6881 17.0143 33.9697 17.4791 34.2857 17.9971H29.9598C29.6893 17.5577 29.4441 17.1606 29.2244 16.8057C29.0048 16.4508 28.7713 16.0677 28.5238 15.6565C28.2758 15.2456 28.0306 14.8457 27.7882 14.4566C27.5458 14.0675 27.3375 13.7267 27.1632 13.4342C26.9882 13.1414 26.867 12.9443 26.7996 12.8427C26.6325 12.5906 26.5336 12.2994 26.5126 11.9977C26.5294 11.7081 26.6226 11.4281 26.7827 11.1862C26.8503 11.0736 26.9743 10.8736 27.1545 10.5863C27.3347 10.299 27.546 9.95818 27.7882 9.56386C28.0304 9.16953 28.2756 8.76674 28.5238 8.35551C28.772 7.94428 29.0055 7.55837 29.2244 7.19784C29.4445 6.83768 29.6896 6.43772 29.9598 5.99795H34.2857L30.9396 11.4566C30.8361 11.6187 30.7777 11.8055 30.7706 11.9977C30.7817 12.1995 30.8522 12.3934 30.9731 12.5554H30.9737Z" fill="#0A2343"/>
<path d="M41.0942 5.99994C40.8238 6.13514 40.5674 6.26754 40.3252 6.39711C40.0829 6.52668 39.8463 6.6478 39.6154 6.76047C39.3844 6.87314 39.1506 6.98581 38.914 7.09848C38.6774 7.21116 38.4351 7.31256 38.1873 7.4027C37.9394 7.49302 37.6746 7.58315 37.3929 7.6731L37.7647 9.10966C38.1028 9.00826 38.4099 8.90685 38.6861 8.80544C38.9565 8.70658 39.2215 8.59375 39.4801 8.46743C39.7337 8.34349 39.9872 8.20829 40.2407 8.06181L40.2491 8.05674V17.9999H42.0071V6.00051L41.0942 5.99994Z" fill="#1767CE"/>
</svg>

<svg xmlns="http://www.w3.org/2000/svg" viewBox="0 0 44 24"><path fill="#0A2343" d="M0 17.997V5.998h3.937v12H0Zm9.294-10.09 2.264 10.09H7.249L4.545 5.998h2.417a2.276 2.276 0 0 1 1.512.55c.422.346.71.826.82 1.36Zm2.855 10.09V5.998h3.938v12h-3.938Zm6.911-7.436a2.382 2.382 0 0 1-2.4-2.4 2.303 2.303 0 0 1 .322-1.2A2.411 2.411 0 0 1 20.26 6.1c.356.209.653.506.862.862.215.363.326.778.321 1.2a2.4 2.4 0 0 1-1.183 2.079 2.302 2.302 0 0 1-1.2.32Zm2.992 7.436V5.998h3.937v12h-3.937Zm8.922-5.442c.01.012.095.15.253.414.158.265.364.603.617 1.014a315.936 315.936 0 0 1 1.597 2.62c.247.411.529.876.845 1.394H29.96c-.27-.44-.516-.836-.736-1.191-.22-.355-.453-.738-.7-1.15-.248-.41-.493-.81-.736-1.2-.242-.388-.45-.73-.625-1.022-.175-.293-.296-.49-.363-.591a1.75 1.75 0 0 1-.287-.845c.016-.29.11-.57.27-.812.067-.112.191-.312.371-.6a182.106 182.106 0 0 0 1.37-2.23l.7-1.158.736-1.2h4.326l-3.346 5.459a1.08 1.08 0 0 0-.17.54c.012.203.082.396.203.558Z"/><path fill="#1767CE" d="M41.094 6c-.27.135-.527.268-.769.397-.242.13-.479.25-.71.363-.23.113-.464.226-.701.338a8.242 8.242 0 0 1-.727.305c-.248.09-.512.18-.794.27l.372 1.437c.338-.102.645-.203.921-.305.27-.098.535-.211.794-.338.254-.124.507-.259.76-.405l.01-.005V18h1.757V6h-.913Z"/></svg>
